dist/img/svg/crowdfunding/14.svg

<svg width="60" height="70" viewBox="0 0 60 70" fill="none" xmlns="http://www.w3.org/2000/svg">
<path d="M0 7C0 5.14348 0.790176 3.36301 2.1967 2.05025C3.60322 0.737498 5.51088 0 7.5 0H37.5C38.4945 0.000198231 39.4482 0.369077 40.1512 1.0255L58.9013 18.5255C59.6046 19.1817 59.9998 20.0718 60 21V63C60 64.8565 59.2098 66.637 57.8033 67.9497C56.3968 69.2625 54.4891 70 52.5 70H7.5C5.51088 70 3.60322 69.2625 2.1967 67.9497C0.790176 66.637 0 64.8565 0 63V7ZM50.9475 21L37.5 8.449V21H50.9475ZM30 7H7.5V63H52.5V28H33.75C32.7554 28 31.8016 27.6312 31.0983 26.9749C30.3951 26.3185 30 25.4283 30 24.5V7ZM43.9012 36.0255C44.6043 36.6818 44.9992 37.5719 44.9992 38.5C44.9992 39.4281 44.6043 40.3182 43.9012 40.9745L28.9012 54.9745C28.198 55.6307 27.2444 55.9993 26.25 55.9993C25.2556 55.9993 24.302 55.6307 23.5987 54.9745L16.0987 47.9745C15.7406 47.6516 15.4549 47.2654 15.2584 46.8384C15.0618 46.4114 14.9584 45.9521 14.9541 45.4874C14.9497 45.0227 15.0446 44.5618 15.2332 44.1317C15.4217 43.7015 15.7002 43.3107 16.0523 42.9821C16.4044 42.6535 16.8231 42.3936 17.2839 42.2176C17.7448 42.0416 18.2386 41.9531 18.7365 41.9571C19.2344 41.9612 19.7265 42.0577 20.184 42.2411C20.6415 42.4246 21.0553 42.6912 21.4012 43.0255L26.25 47.551L38.5988 36.0255C39.302 35.3694 40.2556 35.0007 41.25 35.0007C42.2444 35.0007 43.198 35.3694 43.9012 36.0255Z" fill="white"/>
</svg>

<svg width="60" height="70" viewBox="0 0 60 70" fill="none" xmlns="http://www.w3.org/2000/svg"><path d="M0 7c0-1.857.79-3.637 2.197-4.95C3.603.737 5.51 0 7.5 0h30c.995 0 1.948.37 2.651 1.026l18.75 17.5A3.386 3.386 0 0160 21v42c0 1.856-.79 3.637-2.197 4.95C56.397 69.263 54.49 70 52.5 70h-45c-1.99 0-3.897-.737-5.303-2.05C.79 66.637 0 64.856 0 63V7zm50.947 14L37.5 8.449V21h13.447zM30 7H7.5v56h45V28H33.75a3.89 3.89 0 01-2.652-1.025A3.386 3.386 0 0130 24.5V7zm13.901 29.026A3.385 3.385 0 0145 38.5c0 .928-.395 1.818-1.098 2.474l-15 14A3.89 3.89 0 0126.25 56a3.89 3.89 0 01-2.651-1.025l-7.5-7a3.506 3.506 0 01-.84-1.136 3.295 3.295 0 01-.025-2.707c.188-.43.466-.82.818-1.149a3.788 3.788 0 011.232-.764 3.986 3.986 0 012.9.023c.457.184.871.45 1.217.785l4.849 4.525 12.349-11.526a3.89 3.89 0 012.651-1.024 3.89 3.89 0 012.651 1.025z" fill="#fff"/></svg>
